X:760
T:Branles de villages 4
D:UGB record
L:1/8
M:2/4
O:France
R:Branle
Z:Richard Robinson 
%%TUNEURL: http://www.leeds.ac.uk/music/Info/RRTuneBk/gettune/00000aa8.html
%%ID:00000aa8
K:C dorian
c2 BA|G^F G>G|ED CD/E/|FE DC|\
c2 BA|GF/G/ EF/E/|D/E/C/D/ =B,C/D/|E/F/D C2::
ED/C/ DG|E/F/G/A/ B>c|dc/B/ AG|G^F G2|\
ED/C/ DG|E/F/G/A/ B>C|
DC/B,/ A,G,|A,/B,/A, G,D|\
GF/E/ DC|GF/E/ DC|_AA G_A|GF E2|zF GC|FG C2:|
